X:1
T:Title
%%score { 1 | ( 2 3 ) }
L:1/8
Q:1/4=100
M:4/4
K:F
V:1 treble nm="Grand Piano"
V:2 bass 
V:3 bass 
V:1
 A4 G2 F2 | c3 d c4 | A4 G2 F2 | [EG]3 [FA] [EG]4 | A4 G2 [F=B]2 | [Ec]6 z2 | c4 A2 F2 | %7
w: W.~H.~Doane * *|||||||
 [EG]2 [FA][GB] [EG]4 | c4 A2 F2 | [EG]2 [FA]B [CEG]4 | [CFA]4 [B,FB]2 [Fc]2 | [Fd]3 [Fd] c2 A2 | %12
w: |||||
 F4 G4 | F6 z2 |] %14
w: ||
V:2
 [F,CF]4 [F,B,E]2 [F,A,]2 | [F,A,F]3 [F,B,F] [F,A,F]4 | [F,CF]4 [F,B,E]2 [F,A,]2 | %3
 [C,C]3 [C,C] [C,C]4 | [F,CF]4 [E,C]2 [D,G,]2 | [C,G,]6 z2 | [F,A,F]4 [F,CF]2 [F,A,]2 | %7
 [C,C]2 [C,C]2 [C,C]4 | [A,CF]4 [F,CF]2[K:bass] [F,A,]2 | [C,C]2 z G C,4 | F,2 _E,2 D,2 [C,A,]2 | %11
 [B,,B,]3 [D,B,] [F,A,F]2 [F,CF]2 | [C,A,]4 [C,B,C]4 | [F,A,C]6 z2 |] %14
V:3
 x8 | x8 | x8 | x8 | x8 | x8 | x8 | x8 | x6[K:bass] x2 | z2 [C,C]2 z4 | x8 | x8 | x8 | x8 |] %14

